src/iconfont/glyphs/broken-image.svg

<svg xmlns="http://www.w3.org/2000/svg" xml:space="preserve" svgo-fixed viewBox="0 0 1024 1024"><path d="M208 887q-34 0-58-24a79 79 0 0 1-25-59V220q0-34 25-59 24-24 58-24h584a82 82 0 0 1 83 83v584a82 82 0 0 1-83 83zm42-351 167-167 166 167 167-167 42 42V220H208v274zm-42 268h584V529l-42-42-167 167-166-167-167 167-42-42zm0 0V529v83-392z" style="fill-rule:nonzero" transform="translate(-27 -27)scale(1.05321)"/></svg>

<?xml version="1.0" encoding="UTF-8" standalone="no"?>
<!DOCTYPE svg PUBLIC "-//W3C//DTD SVG 1.1//EN" "http://www.w3.org/Graphics/SVG/1.1/DTD/svg11.dtd">
<svg width="100%" height="100%" viewBox="0 0 1024 1024" version="1.1" xmlns="http://www.w3.org/2000/svg" xmlns:xlink="http://www.w3.org/1999/xlink" xml:space="preserve" xmlns:serif="http://www.serif.com/" style="fill-rule:evenodd;clip-rule:evenodd;stroke-linejoin:round;stroke-miterlimit:2;">
    <g transform="matrix(1.05321,0,0,1.05321,-26.6053,-27.2439)">
        <path d="M208,887C185,887 166,879 150,863C133,846 125,827 125,804L125,220C125,197 133,178 150,161C166,145 185,137 208,137L792,137C815,137 834,145 851,161C867,178 875,197 875,220L875,804C875,827 867,846 851,863C834,879 815,887 792,887L208,887ZM250,536L417,369L583,536L750,369L792,411L792,220L208,220L208,494L250,536ZM208,804L792,804L792,529L750,487L583,654L417,487L250,654L208,612L208,804ZM208,804L208,529L208,612L208,220L208,804Z" style="fill-rule:nonzero;"/>
    </g>
</svg>
